X:1155
T:Air
C:anon.
O:Venezuela
Z:Transcribed by Frank Nordberg - http://www.musicaviva.com
F:http://abc.musicaviva.com/tunes/venezuela/aire-venezolano/aire-venezolano-1.abc
M:3/4
L:1/8
Q:1/4=160
K:D
"D"z F GF ED|"A7"C2A4|"A7"F2G2A2|"D"G2F4::"D"F2G2A2|"G"B2B4|"G"d2c2B2|"D"d2A4|"D"z A BA ^GA|"A7"c2EFG2|"A7"GFG2A2|"D"G2F4:|
W:
W:
W:  From Musica Viva - http://www.musicaviva.com
W:  the Internet center for free sheet music downloads.
